X:1
T:Title
%%score { ( 1 3 5 ) | ( 2 4 ) }
L:1/8
Q:1/4=100
M:4/4
K:Bb
V:1 treble nm="Grand Piano"
V:3 treble 
V:5 treble 
V:2 bass 
V:4 bass 
V:1
 [DF]2 [B,FG]2 [EA]2 [DB]2 | [Ed]3 [Ec] [DB]4 | [Ee]2 [Fd]2 [Fc]2 [FB]2 | A2- [CEA]2 [CEF]4 | %4
w: Edward~J.~Hopkins * * *||||
 [B,DF]2 [DFG]2 [CEA]2 [B,DB]2 | [^Fd]3 [Fc] B4 | d2 c2 F2 [FG]2 | A3 G F4 | e4 z4 | d4 z4 | %10
w: ||||||
 [B,G]3 G A2 B2 |[M:8/4] B2 c2 [DB]4 z8 |[M:4/4] [EB]4 [DB]4 |] %13
w: |||
V:2
 B,,2 D,2 [C,F,]2 [B,,F,]2 | [A,,F,]3 [A,,F,] [B,,F,]4 | [B,,G,]2 [B,,F,]2 [E,A,]2 [D,B,]2 | %3
 [C,F,]2 z G A,,4 | B,,2 B,2 F,2 G,2 | [D,A,]3 [D,A,][K:treble] [G,B,G]4 | %6
 [G,B,=E]2 [A,CF]2[K:bass] [G,=B,]2 [D,B,]2 | [C,C]2 [C,B,]2 [F,A,]4 | %8
 [G,B,E]2 [A,C]2 [B,DF]2[K:bass] [F,DF]2 | [D,B,]2 z[K:treble] c[K:bass] E,4 | %10
 E,3 [E,B,] [=E,A,C]2 [E,G,C]2 |[M:8/4] [F,B,D]2 [F,A,E]2 [B,,B,]4 z8 |[M:4/4] [E,G,]4 [B,,F,]4 |] %13
V:3
 x8 | x8 | x8 | E2 z2 z4 | x8 | x8 | x8 | F2 =E2 z4 | z2 z e d2 B2 | F2 [D_A]2 [EGB]4 | E2 _D2 z4 | %11
[M:8/4] x16 |[M:4/4] x8 |] %13
V:4
 x8 | x8 | x8 | z2 B,,2 z4 | x8 | x4[K:treble] x4 | x4[K:bass] x4 | x8 | x6[K:bass] x2 | %9
 z2 B,,2[K:treble][K:bass] z4 | x8 |[M:8/4] x16 |[M:4/4] x8 |] %13
V:5
 x8 | x8 | x8 | x8 | x8 | x8 | x8 | x8 | z2 F2 z4 | x8 | x8 |[M:8/4] x16 |[M:4/4] x8 |] %13

